assets/illustrations/default/professional-3.svg

<svg xmlns="http://www.w3.org/2000/svg" width="1080" height="1081" fill="none"><path fill="url(#a)" d="m1037.25 363.794-53.708 51.123 37.368-88.98-13.91-11.001-48.858 77.817 21.679-113.247-18.443-5.986-40.607 108.393 2.912-96.26-19.091-3.235-35.268 151.589-33.974-51.608-14.399 4.206 33.489 107.908-8.898 36.401 120.365 31.709 37.373-115.997 46.43-70.699z"/><path fill="#141414" d="M377.509 379.163H271.542c-12.943 0-23.459-10.516-23.459-23.458V214.469c0-12.942 10.516-23.458 23.459-23.458h105.967c12.942 0 23.458 10.516 23.458 23.458v141.236c-.162 12.942-10.516 23.458-23.458 23.458"/><path fill="#8C3A03" d="M537.834 113.514H359.551l-13.59 13.589v335.374h131.69v-53.712h60.183l13.59-13.589V127.265z"/><path fill="#141414" d="m359.551 113.514-13.59 13.589-.809 153.693.971.647L482.02 144.899l69.404 83.642V127.103l-13.59-13.589z"/><path fill="#8C3A03" d="M329.784 335.156h37.371v-58.565h-50.637v45.299c0 7.28 5.986 13.266 13.266 13.266"/><path fill="url(#b)" d="M376.538 335.154h-30.577v71.184h30.577z"/><path fill="url(#c)" d="M431.219 427.371h46.431v-18.605h-46.431z"/><path fill="#141414" fill-rule="evenodd" d="M498.032 259.808a2.426 2.426 0 0 1 3.196 1.25l30.091 68.757a2.425 2.425 0 0 1-2.223 3.4h-33.165a2.428 2.428 0 0 1 0-4.854h29.454l-28.603-65.357a2.426 2.426 0 0 1 1.25-3.196" clip-rule="evenodd"/><path fill="#FD9BDC" d="m827.745 511.497-45.299 127.484-85.42-113.086c-26.371-34.944-67.625-55.491-111.306-55.491H477.488V427.37h-131.69v43.034l-21.355 6.957-145.927 48.049c-48.697 16.016-84.774 57.432-93.834 107.908L30 938.762h634.508v-76.361l43.357 61.962c48.373 68.919 154.825 52.094 179.416-28.473L991.63 553.883z"/><path fill="url(#d)" d="M664.509 862.402V643.026l51.285 291.369z"/><path fill="url(#e)" d="M782.609 638.984 736.663 769.38l18.605-166.635z"/><path fill="url(#f)" d="m674.215 722.626-142.206 5.825c-8.898.323-15.855 7.927-15.531 16.825l3.073 75.228c.324 8.898 7.928 15.855 16.826 15.532l142.206-5.825c8.898-.323 15.854-7.927 15.531-16.825l-3.074-75.228c-.324-9.06-7.927-16.017-16.825-15.532"/><path fill="#C5D9FB" d="M570.512 817.269c19.3 0 34.945-15.646 34.945-34.945 0-19.3-15.645-34.945-34.945-34.945-19.299 0-34.945 15.645-34.945 34.945 0 19.299 15.646 34.945 34.945 34.945"/><path fill="#1968F0" d="M570.538 784.223c6.874-.281 12.24-5.575 11.984-11.825-.255-6.249-6.035-11.087-12.91-10.806-6.874.281-12.24 5.575-11.984 11.824.255 6.25 6.035 11.088 12.91 10.807M571.969 817.268c9.707-.323 18.444-4.853 24.268-11.648-4.045-10.03-14.075-16.987-25.4-16.501-11.487.485-20.87 8.25-24.106 18.605 6.472 6.147 15.37 9.868 25.238 9.544M674.538 797.369l-50.476 2.104c-2.912.161-5.5-2.104-5.5-5.177l-.485-13.428c-.162-2.912 2.103-5.501 5.177-5.501l50.475-2.103c2.912-.162 5.501 2.103 5.501 5.177l.485 13.428c.162 2.912-2.265 5.339-5.177 5.5"/><path fill="#C5D9FB" d="m650.918 768.249-30.577 1.294c-1.617 0-2.912-1.132-2.912-2.75l-.161-2.912c0-1.618 1.132-2.912 2.75-2.912l30.577-1.294c1.617 0 2.912 1.132 2.912 2.75l.161 2.912c0 1.618-1.132 2.912-2.75 2.912"/><path fill="#A3A3A3" d="m634.904 711.943-64.551 2.589c-2.75.161-4.692 2.426-4.692 5.015l.485 12.943c.162 2.75 2.427 4.691 5.016 4.691l64.551-2.588c2.75-.162 4.691-2.427 4.691-5.016l-.485-12.942c0-2.75-2.265-4.853-5.015-4.692"/><path fill="url(#g)" d="m256.656 733.138-35.754 205.624h280.853z"/><defs><linearGradient id="a" x1="936.292" x2="942.873" y1="411.777" y2="638.398" gradientUnits="userSpaceOnUse"><stop offset=".201" stop-color="#8C3A03"/><stop offset=".335" stop-color="#883803"/><stop offset=".47" stop-color="#7C3303"/><stop offset=".606" stop-color="#672B02"/><stop offset=".743" stop-color="#4B1F02"/><stop offset=".879" stop-color="#271001"/><stop offset="1"/></linearGradient><linearGradient id="b" x1="389.37" x2="309.148" y1="380.002" y2="353.573" gradientUnits="userSpaceOnUse"><stop offset=".201" stop-color="#8C3A03"/><stop offset=".335" stop-color="#883803"/><stop offset=".47" stop-color="#7C3303"/><stop offset=".606" stop-color="#672B02"/><stop offset=".743" stop-color="#4B1F02"/><stop offset=".879" stop-color="#271001"/><stop offset="1"/></linearGradient><linearGradient id="c" x1="434.832" x2="475.019" y1="446.648" y2="387.929" gradientUnits="userSpaceOnUse"><stop offset=".332" stop-color="#8C3A03"/><stop offset=".444" stop-color="#883803"/><stop offset=".557" stop-color="#7C3303"/><stop offset=".671" stop-color="#672B02"/><stop offset=".785" stop-color="#4B1F02"/><stop offset=".899" stop-color="#271001"/><stop offset="1"/></linearGradient><linearGradient id="d" x1="732.123" x2="600.277" y1="780.664" y2="805.938" gradientUnits="userSpaceOnUse"><stop offset=".317" stop-color="#FD9BDC"/><stop offset=".412" stop-color="#FD8CD7"/><stop offset=".596" stop-color="#FC64C9"/><stop offset=".696" stop-color="#FB4BC1"/></linearGradient><linearGradient id="e" x1="742.433" x2="784.947" y1="685.799" y2="688.85" gradientUnits="userSpaceOnUse"><stop offset=".069" stop-color="#FD9BDC"/><stop offset=".289" stop-color="#FD8CD7"/><stop offset=".714" stop-color="#FC64C9"/><stop offset=".945" stop-color="#FB4BC1"/></linearGradient><linearGradient id="f" x1="690.038" x2="528.268" y1="836.013" y2="727.77" gradientUnits="userSpaceOnUse"><stop stop-color="#C5D9FB"/><stop offset=".184" stop-color="#D9E4F9"/><stop offset=".407" stop-color="#E9EEF7"/><stop offset=".66" stop-color="#F2F3F5"/><stop offset="1" stop-color="#F5F5F5"/></linearGradient><linearGradient id="g" x1="406.12" x2="189.605" y1="805.561" y2="1049.97" gradientUnits="userSpaceOnUse"><stop offset=".134" stop-color="#FD9BDC"/><stop offset=".275" stop-color="#FD8CD7"/><stop offset=".547" stop-color="#FC64C9"/><stop offset=".696" stop-color="#FB4BC1"/></linearGradient></defs></svg>

<svg width="1080" height="1081" viewBox="0 0 1080 1081" fill="none" xmlns="http://www.w3.org/2000/svg">
<path d="M1037.25 363.794L983.542 414.917L1020.91 325.937L1007 314.936L958.142 392.753L979.821 279.506L961.378 273.52L920.771 381.913L923.683 285.653L904.592 282.418L869.324 434.007L835.35 382.399L820.951 386.605L854.44 494.513L845.542 530.914L965.907 562.623L1003.28 446.626L1049.71 375.927L1037.25 363.794Z" fill="url(#paint0_linear_18735_2912)"/>
<path d="M377.509 379.163H271.542C258.599 379.163 248.083 368.647 248.083 355.705V214.469C248.083 201.527 258.599 191.011 271.542 191.011H377.509C390.451 191.011 400.967 201.527 400.967 214.469V355.705C400.805 368.647 390.451 379.163 377.509 379.163Z" fill="#141414"/>
<path d="M537.834 113.514H359.551L345.961 127.103V462.477H477.651V408.765H537.834C543.173 403.426 546.085 400.514 551.424 395.176V127.265L537.834 113.514Z" fill="#8C3A03"/>
<path d="M359.551 113.514L345.961 127.103L345.152 280.796L346.123 281.443L482.02 144.899L551.424 228.541V127.103L537.834 113.514H359.551Z" fill="#141414"/>
<path d="M329.784 335.156H367.155V276.591H316.518V321.89C316.518 329.17 322.504 335.156 329.784 335.156Z" fill="#8C3A03"/>
<path d="M376.538 335.154H345.961V406.338H376.538V335.154Z" fill="url(#paint1_linear_18735_2912)"/>
<path d="M431.219 427.371H477.65V408.766H431.219V427.371Z" fill="url(#paint2_linear_18735_2912)"/>
<path fill-rule="evenodd" clip-rule="evenodd" d="M498.032 259.808C499.26 259.27 500.691 259.83 501.228 261.058L531.319 329.815C531.648 330.565 531.576 331.431 531.127 332.116C530.679 332.802 529.915 333.215 529.096 333.215H495.931C494.591 333.215 493.504 332.128 493.504 330.788C493.504 329.448 494.591 328.361 495.931 328.361H525.385L496.782 263.004C496.244 261.776 496.804 260.345 498.032 259.808Z" fill="#141414"/>
<path d="M827.745 511.497L782.446 638.981L697.026 525.895C670.655 490.951 629.401 470.404 585.72 470.404H477.488V427.37H345.798V470.404L324.443 477.361L178.516 525.41C129.819 541.426 93.7419 582.842 84.6822 633.318L30 938.762H664.508V862.401L707.865 924.363C756.238 993.282 862.69 976.457 887.281 895.89L991.63 553.883L827.745 511.497Z" fill="#FD9BDC"/>
<path d="M664.509 862.402V643.026L715.794 934.395L664.509 862.402Z" fill="url(#paint3_linear_18735_2912)"/>
<path d="M782.609 638.984L736.663 769.38L755.268 602.745L782.609 638.984Z" fill="url(#paint4_linear_18735_2912)"/>
<path d="M674.215 722.626L532.009 728.451C523.111 728.774 516.154 736.378 516.478 745.276L519.551 820.504C519.875 829.402 527.479 836.359 536.377 836.036L678.583 830.211C687.481 829.888 694.437 822.284 694.114 813.386L691.04 738.158C690.716 729.098 683.113 722.141 674.215 722.626Z" fill="url(#paint5_linear_18735_2912)"/>
<path d="M570.512 817.269C589.812 817.269 605.457 801.623 605.457 782.324C605.457 763.024 589.812 747.379 570.512 747.379C551.213 747.379 535.567 763.024 535.567 782.324C535.567 801.623 551.213 817.269 570.512 817.269Z" fill="#C5D9FB"/>
<path d="M570.538 784.223C577.412 783.942 582.778 778.648 582.522 772.398C582.267 766.149 576.487 761.311 569.612 761.592C562.738 761.873 557.372 767.167 557.628 773.416C557.883 779.666 563.663 784.504 570.538 784.223Z" fill="#1968F0"/>
<path d="M571.969 817.268C581.676 816.945 590.413 812.415 596.237 805.62C592.192 795.59 582.162 788.633 570.837 789.119C559.35 789.604 549.967 797.369 546.731 807.724C553.203 813.871 562.101 817.592 571.969 817.268Z" fill="#1968F0"/>
<path d="M674.538 797.369L624.062 799.473C621.15 799.634 618.562 797.369 618.562 794.296L618.077 780.868C617.915 777.956 620.18 775.367 623.254 775.367L673.729 773.264C676.641 773.102 679.23 775.367 679.23 778.441L679.715 791.869C679.877 794.781 677.45 797.208 674.538 797.369Z" fill="#1968F0"/>
<path d="M650.918 768.249L620.341 769.543C618.724 769.543 617.429 768.411 617.429 766.793L617.268 763.881C617.268 762.263 618.4 760.969 620.018 760.969L650.595 759.675C652.212 759.675 653.507 760.807 653.507 762.425L653.668 765.337C653.668 766.955 652.536 768.249 650.918 768.249Z" fill="#C5D9FB"/>
<path d="M634.904 711.943L570.353 714.532C567.603 714.693 565.661 716.958 565.661 719.547L566.146 732.49C566.308 735.24 568.573 737.181 571.162 737.181L635.713 734.593C638.463 734.431 640.404 732.166 640.404 729.577L639.919 716.635C639.919 713.885 637.654 711.782 634.904 711.943Z" fill="#A3A3A3"/>
<path d="M256.656 733.138L220.902 938.762H501.755L256.656 733.138Z" fill="url(#paint6_linear_18735_2912)"/>
<defs>
<linearGradient id="paint0_linear_18735_2912" x1="936.292" y1="411.777" x2="942.873" y2="638.398" gradientUnits="userSpaceOnUse">
<stop offset="0.2011" stop-color="#8C3A03"/>
<stop offset="0.3347" stop-color="#883803"/>
<stop offset="0.4701" stop-color="#7C3303"/>
<stop offset="0.6064" stop-color="#672B02"/>
<stop offset="0.7434" stop-color="#4B1F02"/>
<stop offset="0.8794" stop-color="#271001"/>
<stop offset="1"/>
</linearGradient>
<linearGradient id="paint1_linear_18735_2912" x1="389.37" y1="380.002" x2="309.148" y2="353.573" gradientUnits="userSpaceOnUse">
<stop offset="0.2011" stop-color="#8C3A03"/>
<stop offset="0.3347" stop-color="#883803"/>
<stop offset="0.4701" stop-color="#7C3303"/>
<stop offset="0.6064" stop-color="#672B02"/>
<stop offset="0.7434" stop-color="#4B1F02"/>
<stop offset="0.8794" stop-color="#271001"/>
<stop offset="1"/>
</linearGradient>
<linearGradient id="paint2_linear_18735_2912" x1="434.832" y1="446.648" x2="475.019" y2="387.929" gradientUnits="userSpaceOnUse">
<stop offset="0.3317" stop-color="#8C3A03"/>
<stop offset="0.4435" stop-color="#883803"/>
<stop offset="0.5568" stop-color="#7C3303"/>
<stop offset="0.6708" stop-color="#672B02"/>
<stop offset="0.7853" stop-color="#4B1F02"/>
<stop offset="0.8991" stop-color="#271001"/>
<stop offset="1"/>
</linearGradient>
<linearGradient id="paint3_linear_18735_2912" x1="732.123" y1="780.664" x2="600.277" y2="805.938" gradientUnits="userSpaceOnUse">
<stop offset="0.3168" stop-color="#FD9BDC"/>
<stop offset="0.412" stop-color="#FD8CD7"/>
<stop offset="0.5955" stop-color="#FC64C9"/>
<stop offset="0.6955" stop-color="#FB4BC1"/>
</linearGradient>
<linearGradient id="paint4_linear_18735_2912" x1="742.433" y1="685.799" x2="784.947" y2="688.85" gradientUnits="userSpaceOnUse">
<stop offset="0.069479" stop-color="#FD9BDC"/>
<stop offset="0.2895" stop-color="#FD8CD7"/>
<stop offset="0.7137" stop-color="#FC64C9"/>
<stop offset="0.9449" stop-color="#FB4BC1"/>
</linearGradient>
<linearGradient id="paint5_linear_18735_2912" x1="690.038" y1="836.013" x2="528.268" y2="727.77" gradientUnits="userSpaceOnUse">
<stop stop-color="#C5D9FB"/>
<stop offset="0.1836" stop-color="#D9E4F9"/>
<stop offset="0.4073" stop-color="#E9EEF7"/>
<stop offset="0.66" stop-color="#F2F3F5"/>
<stop offset="1" stop-color="#F5F5F5"/>
</linearGradient>
<linearGradient id="paint6_linear_18735_2912" x1="406.12" y1="805.561" x2="189.605" y2="1049.97" gradientUnits="userSpaceOnUse">
<stop offset="0.1336" stop-color="#FD9BDC"/>
<stop offset="0.2748" stop-color="#FD8CD7"/>
<stop offset="0.5471" stop-color="#FC64C9"/>
<stop offset="0.6955" stop-color="#FB4BC1"/>
</linearGradient>
</defs>
</svg>
